build/system/DomainOutline.svg

<svg xmlns="http://www.w3.org/2000/svg" fill="none" viewBox="0 0 24 24" focusable="false"><path d="M0 0H24V24H0z"/><path fill="#74767B" fill-rule="evenodd" d="M4 6C4 4.34315 5.34315 3 7 3L17 3C18.6569 3 20 4.34315 20 6L20 18C20 19.6569 18.6569 21 17 21L7 21C5.34315 21 4 19.6569 4 18L4 6ZM7 4.3L17 4.3C17.9389 4.3 18.7 5.06112 18.7 6L18.7 18C18.7 18.9389 17.9389 19.7 17 19.7L7 19.7C6.06112 19.7 5.3 18.9389 5.3 18L5.3 6C5.3 5.06112 6.06112 4.3 7 4.3ZM8.48047 11.2822C9.03275 11.2822 9.48047 10.8345 9.48047 10.2822C9.48047 9.72994 9.03275 9.28223 8.48047 9.28223C7.92818 9.28223 7.48047 9.72994 7.48047 10.2822C7.48047 10.8345 7.92818 11.2822 8.48047 11.2822ZM13.2925 10.1334C13.4007 9.79109 13.211 9.42586 12.8688 9.3176C12.5265 9.20934 12.1613 9.39905 12.053 9.74132L10.7473 13.8693C10.6391 14.2116 10.8288 14.5768 11.1711 14.6851C11.5133 14.7933 11.8786 14.6036 11.9868 14.2613L13.2925 10.1334ZM16.4849 10.1334C16.5931 9.79109 16.4034 9.42586 16.0611 9.3176C15.7189 9.20934 15.3536 9.39905 15.2454 9.74132L13.9397 13.8693C13.8315 14.2116 14.0212 14.5768 14.3634 14.6851C14.7057 14.7933 15.0709 14.6036 15.1792 14.2613L16.4849 10.1334ZM8.48047 14.7178C9.03275 14.7178 9.48047 14.2701 9.48047 13.7178C9.48047 13.1655 9.03275 12.7178 8.48047 12.7178C7.92818 12.7178 7.48047 13.1655 7.48047 13.7178C7.48047 14.2701 7.92818 14.7178 8.48047 14.7178Z"/></svg>

<svg xmlns="http://www.w3.org/2000/svg" fill="none" viewBox="0 0 24 24" focusable="false"><path fill="#74767B" fill-rule="evenodd" d="M4 6c0-1.66 1.34-3 3-3h10c1.65 0 3 1.34 3 3v12c0 1.65-1.35 3-3 3H7c-1.66 0-3-1.35-3-3zm3-1.7h10c.93 0 1.7.76 1.7 1.7v12c0 .93-.77 1.7-1.7 1.7H7c-.94 0-1.71-.77-1.71-1.7V6c0-.94.77-1.7 1.71-1.7m1.48 6.98c.55 0 1-.45 1-1 0-.56-.45-1-1-1-.56 0-1 .44-1 1 0 .55.44 1 1 1m4.38-1.97c.35.11.54.48.43.82l-1.31 4.13c-.11.34-.47.53-.81.42a.65.65 0 0 1-.43-.82l1.31-4.12c.11-.35.47-.54.81-.43m3.62.82a.655.655 0 0 0-.42-.82.65.65 0 0 0-.82.43l-1.31 4.12c-.1.35.09.71.43.82s.71-.08.81-.42zm-8 4.58c.55 0 1-.44 1-1 0-.55-.45-1-1-1-.56 0-1 .45-1 1 0 .56.44 1 1 1"/></svg>
